X:72
T:Sod's Joy
T:the Disorderly
O:England
M:7/8
C:Richard Robinson
%%Copyright:Richard Robinson
K:D
ecAc eAc | eaa eada | cAAc eAc | dBB GBBd | 
ecAc eAc | eaa daea | \
M:8/8
fafd egec |1\
M:6/8
AcA eAf \
:|2 \
M:6/8
Add GBB ||
|:\
M:7/8
A2 f2 faf | eAA efge | \
A2 f2 faf | edcB GBB | 
A2 f2 faf | eAA efge | \
M:8/8
fafd egec \
M:6/8
|1 Add GBB :|2 \
d3 efg ||
|:\
M:7/8
a2fd Bec| Aaag fdf \
| e2ge Bce |1 \
d4 efg :|2 \
d4 "DC"eAf|]
